!!!OTL-incipit: Auf, auf ihr Jaeger all und folget eurem Fuersten nach
!!!ARE: Europa, Mitteleuropa, Deutschland, Untermainfranken, Spessart
!!!SCT: D0181
!!!TXL: @@DE
!!!YEM: Copyright 1995, estate of Helmut Schaffrath.
**kern	**text
*ICvox	*
*M4/4yy	*
*k[]	*
*C:	*
{4g	Auf,
=1	=1
4cc	auf
4cc	ihr
4dd	Jäger
4dd	.
=2	=2
2ee	all
2ff	uns
=3	=3
4gg	folget
4ee	.
4ff	eurem
4dd	.
=4	=4
4cc	Fürsten
4a	.
4g}	nach
{4g	er
=5	=5
4cc	ist
4cc	auf
4dd	grüner
4dd	.
=6	=6
2ee	Heid
2ff	und
=7	=7
4gg	jaget
4ee	.
4ff	Hirsch
4dd	und
=8	=8
2cc	Reh
4r}	.
{4dd	auf
=9	=9
4dd	grüner
4dd	.
4b	Heid
4dd	ist
=10	=10
4dd	Jagdgeschrei
4dd	.
4b	.
4g	im
=11	=11
2.ee	Wald
4g	im
=12	=12
2.ee}	Wald
{4g	der
=13	=13
4ff	Hörner
4ee	.
4dd	Klang
4ee	ruft
=14	=14
4ff	zum
4ee	Gesang
4dd	.
4cc	die
=15	=15
4b	Jäger
4g	.
4ee	all
4dd	zusammen.
=16	=16
2cc	.
4r}	.
{4dd	auf
=17	=17
4dd	grüner
4dd	.
4b	Heid
4dd	ist
=18	=18
4dd	Jagdgeschrei
4dd	.
4b	.
4g	im
=19	=19
2.ee	Wald
4g	im
=20	=20
2.ee}	Wald
{4g	der
=21	=21
4ff	Hörner
4ee	.
4dd	Klang
4ee	ruft
=22	=22
4ff	zum
4ee	Gesang
4dd	.
4cc	die
=23	=23
4b	Jäger
4g	.
4ee	all
4dd	zusammen.
=24	=24
2cc	.
4r}	.
==	==
!!!AGN: Jaeger - Lied
!! Grundton in der zweigestrichenen Oktave; Inzipit = Transposition
!!!ONB: ESAC (Essen Associative Code) Database: DVA
!!!AMT: simple quadruple
!!!AIN: vox
!!!EED: Helmut Schaffrath
!!!EEV: 1.0
!!!YOR: https://freidok.uni-freiburg.de/data/150373
!!!EFL: A149799
!!!ENC: Anna Maria Matuszewska
!!!EEV: 2025/06/04
*-	*-
